X:1
T:See the Sheperds Queen (ending) Alto
T:See the Sheperds Queen (ending) Alto
L:1/8
M:4/4
K:D
V:1 treble nm="Alto" snm="A."
V:1
!mp!!mp! E2 E4 E2 | F4 E4 | E8 | F4 G4 | G2 G4 F2 | F8 | z8 |!p! E2 F2 ^G2 FG | A6 G2 | F4 E4 | %10
w: Then dance we|on a|row,|And chant|it as we|go.||Fa la, la la la|la, fa|la la,|
 z4 z2 E2- | E2 D2 C2 B,A, | B,6 A,2 | ^G,2 A,2 B,4 | z2"^cresc." E4 D2 | C4 E4 | F4 E2 D2 | %17
w: fa|* la la la la|la, fa|la la la,|fa la|la, fa|la la la|
!f! C2 B,2 A,4 | F2 ^G2 A2 GA | B2 E4 A,2 | E8 | !fermata!E8 |] %22
w: la la la,|fa la la la la|la la, fa|la|la.|

